X:1
T:Eucharistic Hymn, 98.98
T:Eucharistic Hymn, 98.98
T:John Sebastian Bach Hodges, 1868
T:Public Domain Courtesy of the Cyber Hymnal™
C:John Sebastian Bach Hodges, 1868
Z:Public Domain
Z:Courtesy of the Cyber Hymnal™
%%score ( 1 2 ) ( 3 4 )
L:1/8
M:3/4
K:Eb
V:1 treble 
V:2 treble 
V:3 bass 
V:4 bass 
V:1
 [EB]2 [EB]2 [EA]2 | [EG]4 [EB]2 | ([DA]2 [EG]2) [DF]2 | (G>A) [EB]6 | [EB]2 [GB]2 A2 | [EG]4 E2 | %6
 (F3 [EG]) [DF]2 | E6 | [EA]2 [FA]2 [EG]2 | [Ec]4 [=EB]2 | A4 [EG]2 | [EG]2 [DF]6 | %12
 [EB]2 [EG]2 [CE]2 | A4 [EG]2 | (F3 G) [DF]2 | E6 |] %16
V:2
 x6 | x6 | x6 | E2 x6 | x4 A2 | x4 E2 | E4 x2 | E6 | x6 | x6 | (F2 E2) x2 | x8 | x6 | (C2 D2) x2 | %14
 E3 x3 | E6 |] %16
V:3
 [E,G,]2 [E,G,]2 [E,C]2 | [E,B,]4 [E,G,]2 | (F,2 B,2) [B,,B,]2 | (B,>A,) [E,G,]6 | %4
 (G,B,) [E,_D]2 [E,C]2 | B,4 [C,=A,]2 | ([B,,B,]3 [B,,B,]) [B,,A,]2 | [E,G,]6 | %8
 [C,C]2 [D,B,]2 [E,B,]2 | A,4 [G,B,]2 | (C2 A,2) ([G,B,][A,C]) | B,2 B,6 | [G,B,]2 [G,B,]2 [A,C]2 | %13
 [F,A,]4 [E,B,]2 | ([B,,B,]3 [B,,A,]) [B,,A,]2 | [E,G,]6 |] %16
V:4
 x6 | x6 | B,,4 x2 | E,2 x6 | E,2 x4 | (E,3 D,) x2 | x6 | x6 | x6 | A,4 x2 | F,4 x2 | B,2 B,6 | %12
 x6 | x6 | x6 | x6 |] %16

